static/img/icons/launchdarkly.svg

<svg fill="none" height="26" viewBox="0 0 26 26" width="26" xmlns="http://www.w3.org/2000/svg"><path d="m19.6 1c1.7552.19429 2.9366.63338 3.8184 1.62575 1.5816 1.77994 1.5816 4.6447 1.5816 10.37425 0 5.7296 0 8.5943-1.5816 10.3743-.8818.9924-2.0632 1.4314-3.8184 1.6257m-13.19999 0c-1.75516-.1943-2.93659-.6333-3.81838-1.6257-1.58163-1.78-1.58163-4.6447-1.58163-10.3743 0-5.72955 0-8.59431 1.58163-10.37425.88179-.99237 2.06322-1.43146 3.81838-1.62575" stroke="#fff" stroke-linecap="round" stroke-linejoin="round" stroke-width="1.5"/><path d="m13.1489 22c-.0738-.0012-.1458-.0226-.2083-.0618-.0626-.0393-.1133-.0949-.1468-.161-.0328-.0638-.0467-.1356-.0402-.2072.0065-.0715.0332-.1396.0769-.1964l4.208-5.8227-7.37336 3.0298c-.04975.0226-.10374.0343-.15835.0344-.0848-.0009-.16711-.029-.23488-.0803-.06778-.0512-.11748-.1228-.14183-.2045-.02408-.081-.02079-.1677.00937-.2467.03015-.0789.08547-.1456.15732-.1896l6.47993-3.8447-11.41133-.6591c-.09904-.0065-.19191-.0506-.25976-.1234s-.10561-.1687-.10561-.2685c0-.0997.03776-.1957.10561-.2685s.16072-.1169.25976-.1234l11.41793-.6591-6.48403-3.84383c-.07088-.0446-.12514-.11144-.15437-.19017s-.03181-.16495-.00732-.2453c.02396-.0817.07344-.15349.14113-.20476.06768-.05127.14999-.07931.23475-.07997.05455-.00028.10854.01114.15835.0335l7.36919 3.03153-4.2088-5.82189c-.0434-.05713-.0698-.12539-.0763-.19694s.0072-.14349.0396-.20755c.0335-.06631.0845-.12208.1474-.16122s.1353-.06014.2093-.0607c.0511.00034.1016.01096.1486.03124.0469.02028.0894.04981.1248.08684l8.3884 8.42802c.1191.1201.186.2827.186.4522 0 .1696-.0669.3322-.186.4522l-8.3918 8.4314c-.0354.0371-.0778.0666-.1247.0869-.047.0202-.0975.0309-.1486.0312z" fill="#fff"/></svg>

<svg width="26" height="26" viewBox="0 0 26 26" fill="none" xmlns="http://www.w3.org/2000/svg">
<path d="M19.6 1C21.3552 1.19429 22.5366 1.63338 23.4184 2.62575C25 4.40569 25 7.27045 25 13C25 18.7296 25 21.5943 23.4184 23.3743C22.5366 24.3667 21.3552 24.8057 19.6 25M6.40001 25C4.64485 24.8057 3.46342 24.3667 2.58163 23.3743C1 21.5943 1 18.7296 1 13C1 7.27045 1 4.40569 2.58163 2.62575C3.46342 1.63338 4.64485 1.19429 6.40001 1" stroke="white" stroke-width="1.5" stroke-linecap="round" stroke-linejoin="round"/>
<path d="M13.1489 22C13.0751 21.9988 13.0031 21.9774 12.9406 21.9382C12.878 21.8989 12.8273 21.8433 12.7938 21.7772C12.761 21.7134 12.7471 21.6416 12.7536 21.57C12.7601 21.4985 12.7868 21.4304 12.8305 21.3736L17.0385 15.5509L9.66514 18.5807C9.61539 18.6033 9.5614 18.615 9.50679 18.6151C9.42199 18.6142 9.33968 18.5861 9.27191 18.5348C9.20413 18.4836 9.15443 18.412 9.13008 18.3303C9.106 18.2493 9.10929 18.1626 9.13945 18.0836C9.1696 18.0047 9.22492 17.938 9.29677 17.894L15.7767 14.0493L4.36537 13.3902C4.26633 13.3837 4.17346 13.3396 4.10561 13.2668C4.03776 13.194 4 13.0981 4 12.9983C4 12.8986 4.03776 12.8026 4.10561 12.7298C4.17346 12.657 4.26633 12.6129 4.36537 12.6064L15.7833 11.9473L9.29927 8.10347C9.22839 8.05887 9.17413 7.99203 9.1449 7.9133C9.11567 7.83457 9.11309 7.74835 9.13758 7.668C9.16154 7.5863 9.21102 7.51451 9.27871 7.46324C9.34639 7.41197 9.4287 7.38393 9.51346 7.38327C9.56801 7.38299 9.622 7.39441 9.67181 7.41677L17.041 10.4483L12.8322 4.62641C12.7888 4.56928 12.7624 4.50102 12.7559 4.42947C12.7494 4.35792 12.7631 4.28598 12.7955 4.22192C12.829 4.15561 12.88 4.09984 12.9429 4.0607C13.0058 4.02156 13.0782 4.00056 13.1522 4C13.2033 4.00034 13.2538 4.01096 13.3008 4.03124C13.3477 4.05152 13.3902 4.08105 13.4256 4.11808L21.814 12.5461C21.9331 12.6662 22 12.8288 22 12.9983C22 13.1679 21.9331 13.3305 21.814 13.4505L13.4222 21.8819C13.3868 21.919 13.3444 21.9485 13.2975 21.9688C13.2505 21.989 13.2 21.9997 13.1489 22Z" fill="white"/>
</svg>
